frontend/src/assets/icons/mail-03.svg

<svg width="24" height="24" viewBox="0 0 24 24" fill="none" xmlns="http://www.w3.org/2000/svg">
<g id="mail-03">
<path id="Icon" d="M2 7L7.19384 10.4626C7.49349 10.6623 7.64331 10.7622 7.8054 10.833C7.94927 10.8958 8.10003 10.9414 8.25458 10.969C8.42869 11 8.60876 11 8.96888 11H15.0311C15.3912 11 15.5713 11 15.7454 10.969C15.9 10.9414 16.0507 10.8958 16.1946 10.833C16.3567 10.7622 16.5065 10.6623 16.8062 10.4626L22 7M6.8 20H17.2C18.8802 20 19.7202 20 20.362 19.673C20.9265 19.3854 21.3854 18.9265 21.673 18.362C22 17.7202 22 16.8802 22 15.2V8.8C22 7.11984 22 6.27976 21.673 5.63803C21.3854 5.07354 20.9265 4.6146 20.362 4.32698C19.7202 4 18.8802 4 17.2 4H6.8C5.11984 4 4.27976 4 3.63803 4.32698C3.07354 4.6146 2.6146 5.07354 2.32698 5.63803C2 6.27976 2 7.11984 2 8.8V15.2C2 16.8802 2 17.7202 2.32698 18.362C2.6146 18.9265 3.07354 19.3854 3.63803 19.673C4.27976 20 5.11984 20 6.8 20Z" stroke="black" stroke-width="2" stroke-linecap="round" stroke-linejoin="round"/>
</g>
</svg>

<svg xmlns="http://www.w3.org/2000/svg" width="24" height="24" fill="none" viewBox="0 0 24 24">
  <path stroke="#000" stroke-linecap="round" stroke-linejoin="round" stroke-width="2" d="m2 7 5.194 3.463c.3.2.45.3.611.37.144.063.295.108.45.136.174.031.354.031.714.031h6.062c.36 0 .54 0 .714-.031.155-.028.306-.073.45-.136.162-.07.311-.17.611-.37L22 7M6.8 20h10.4c1.68 0 2.52 0 3.162-.327a3 3 0 0 0 1.311-1.311C22 17.72 22 16.88 22 15.2V8.8c0-1.68 0-2.52-.327-3.162a3 3 0 0 0-1.311-1.311C19.72 4 18.88 4 17.2 4H6.8c-1.68 0-2.52 0-3.162.327a3 3 0 0 0-1.311 1.311C2 6.28 2 7.12 2 8.8v6.4c0 1.68 0 2.52.327 3.162a3 3 0 0 0 1.311 1.311C4.28 20 5.12 20 6.8 20Z"/>
</svg>
